X: 1129
T: Blind Billy
R:slip jig
B:O'Neill's 1129
Z:Transcribed by Michael Hogan
M:9/8
L:1/8
K:A
dec A2f ecA | dec A2g f2e | dec A2f ecA | fBB Bce f2e :|
a2a a2f ecA | ada a2e f2e | fga ada ece | fBB Bce f2e |
ada ada ecA | ada a2e f2e | fga ada ece | fBB Bce f2e ||


